icons/fill-new-tool-edit-setting-set-up.svg

<svg xmlns="http://www.w3.org/2000/svg" width="32px" height="32px" viewBox="0 0 32 32" version="1.1">
    <title>fill-new-tool-edit-setting-set-up</title>
    <g id="fill-new-tool-edit-setting-set-up" stroke-width="1" fill-rule="evenodd">
        <path d="M28,3 C28.5522847,3 29,3.44771525 29,4 L29,28 C29,28.5522847 28.5522847,29 28,29 L4,29 C3.44771525,29 3,28.5522847 3,28 L3,4 C3,3.44771525 3.44771525,3 4,3 L28,3 Z M21,18 C19.6937479,18 18.5824856,18.8348501 18.1706743,20.0000889 L9,20 C8.44771525,20 8,20.4477153 8,21 C8,21.5522847 8.44771525,22 9,22 L18.1710242,22.0009007 C18.5831148,23.1656226 19.6941178,24 21,24 C22.6568542,24 24,22.6568542 24,21 C24,19.3431458 22.6568542,18 21,18 Z M11,8 C9.34314575,8 8,9.34314575 8,11 C8,12.6568542 9.34314575,14 11,14 C12.3058822,14 13.4168852,13.1656226 13.8289758,12.0009007 L23,12 C23.5522847,12 24,11.5522847 24,11 C24,10.4477153 23.5522847,10 23,10 L13.8293257,10.0000889 C13.4175144,8.8348501 12.3062521,8 11,8 Z" id="&#24418;&#29366;" />
    </g>
</svg>

<svg xmlns="http://www.w3.org/2000/svg" viewBox="0 0 32 32"><path fill="currentColor" d="M28 3a1 1 0 0 1 1 1v24a1 1 0 0 1-1 1H4a1 1 0 0 1-1-1V4a1 1 0 0 1 1-1zm-7 15a3.001 3.001 0 0 0-2.83 2H9a1 1 0 0 0 0 2h9.171A3.001 3.001 0 1 0 21 18M11 8a3 3 0 1 0 2.829 4H23a1 1 0 0 0 0-2h-9.17A3.001 3.001 0 0 0 11 8"/></svg>
